icons/svg/shields/h_waypoint_shield.svg

<?xml version="1.0" encoding="UTF-8" standalone="no"?>
<!-- Generator: Adobe Illustrator 16.0.4, SVG Export Plug-In . SVG Version: 6.00 Build 0)  -->

<svg
   xmlns:dc="http://purl.org/dc/elements/1.1/"
   xmlns:cc="http://creativecommons.org/ns#"
   xmlns:rdf="http://www.w3.org/1999/02/22-rdf-syntax-ns#"
   xmlns:svg="http://www.w3.org/2000/svg"
   xmlns="http://www.w3.org/2000/svg"
   xmlns:sodipodi="http://sodipodi.sourceforge.net/DTD/sodipodi-0.dtd"
   xmlns:inkscape="http://www.inkscape.org/namespaces/inkscape"
   version="1.1"
   id="Слой_1"
   x="0px"
   y="0px"
   width="20"
   height="20"
   viewBox="0 0 19.999999 20"
   enable-background="new 0 0 17.113 17.143"
   xml:space="preserve"
   inkscape:version="0.48.4 r9939"
   sodipodi:docname="h_gray_red_round_shield.svg"><metadata
     id="metadata13"><rdf:RDF><cc:Work
         rdf:about=""><dc:format>image/svg+xml</dc:format><dc:type
           rdf:resource="http://purl.org/dc/dcmitype/StillImage" /><dc:title></dc:title></cc:Work></rdf:RDF></metadata><defs
     id="defs11" /><sodipodi:namedview
     pagecolor="#ffffff"
     bordercolor="#666666"
     borderopacity="1"
     objecttolerance="10"
     gridtolerance="10"
     guidetolerance="10"
     inkscape:pageopacity="0"
     inkscape:pageshadow="2"
     inkscape:window-width="1920"
     inkscape:window-height="1004"
     id="namedview9"
     showgrid="false"
     inkscape:zoom="13.766552"
     inkscape:cx="8.0668457"
     inkscape:cy="11.385939"
     inkscape:window-x="1680"
     inkscape:window-y="0"
     inkscape:window-maximized="1"
     inkscape:current-layer="Слой_1" /><path
     clip-rule="evenodd"
     d="m 9.9999993,2.0810031 c 4.3821977,0 7.9189967,3.536774 7.9189967,7.9194579 0,4.355934 -3.536799,7.918536 -7.9189967,7.918536 -4.3812719,0 -7.918997,-3.562602 -7.918997,-7.918536 0,-4.3826839 3.5377251,-7.9194579 7.918997,-7.9194579 l 0,0 z"
     id="path3-9"
     style="fill:#000000;fill-opacity:0.76446283;fill-rule:evenodd"
     inkscape:connector-curvature="0" /><path
     clip-rule="evenodd"
     d="m 9.9999993,2.5168417 c 4.1410137,0 7.4831577,3.3421201 7.4831577,7.4835943 0,4.116195 -3.342144,7.482722 -7.4831577,7.482722 -4.1401393,0 -7.4831581,-3.366527 -7.4831581,-7.482722 0,-4.1414742 3.3430188,-7.4835943 7.4831581,-7.4835943 l 0,0 z"
     id="path3"
     style="fill:#ff5555;fill-opacity:1;fill-rule:evenodd"
     inkscape:connector-curvature="0" /></svg>

<svg width="20" height="20" viewBox="0 0 20 20" fill="none" xmlns="http://www.w3.org/2000/svg">
<path fill-rule="evenodd" clip-rule="evenodd" d="M10 2.08099C14.3822 2.08099 17.919 5.61777 17.919 10.0005C17.919 14.3564 14.3822 17.919 10 17.919C5.61873 17.919 2.08101 14.3564 2.08101 10.0005C2.08101 5.61777 5.61873 2.08099 10 2.08099V2.08099Z" fill="black" fill-opacity="0.764463"/>
<path fill-rule="evenodd" clip-rule="evenodd" d="M10 2.51685C14.141 2.51685 17.4832 5.85897 17.4832 10.0004C17.4832 14.1166 14.141 17.4832 10 17.4832C5.85986 17.4832 2.51685 14.1166 2.51685 10.0004C2.51685 5.85897 5.85986 2.51685 10 2.51685V2.51685Z" fill="#FF5555"/>
</svg>
